web/achievements-icons/time_played_1.svg

<svg enable-background="new 0 0 60 60" viewBox="0 0 60 60" xmlns="http://www.w3.org/2000/svg"><path d="m41.857 22.096c1.963-1.31 3.143-3.514 3.143-5.874v-11.222h-30v11.222c0 2.36 1.18 4.564 3.143 5.874l9.857 6.571v2.667l-9.857 6.571c-1.963 1.309-3.143 3.513-3.143 5.873v11.222h30v-11.222c0-2.36-1.18-4.564-3.143-5.874l-9.857-6.571v-2.667z" fill="#7383bf"/><path d="m40.192 19.6c1.132-.755 1.808-2.018 1.808-3.377 0-1.306-.889-2.445-2.156-2.762l-15.053-3.763c-3.449-.863-6.791 1.746-6.791 5.302v1.223c0 1.359.676 2.622 1.808 3.377l9.192 6.746v15.877c0 3.63-3.764 6.036-7.058 4.511-1.774-.821-3.922.394-3.941 2.349v.041 5.876h24v-11.223c0-.014 0-.027 0-.041-.019-1.931-1.889-3.322-3.791-2.991l-2.049.357c-2.695.469-5.161-1.605-5.161-4.339v-10.417z" fill="#424a60"/><path d="m10 55h40v4h-40z" fill="#424a60"/><path d="m54 58h-3v-4h-42v4h-3c-.552 0-1 .447-1 1s.448 1 1 1h3 1 40 1 3c.552 0 1-.447 1-1s-.448-1-1-1zm-43-2h38v2h-38z" fill="#556080"/><path d="m10 1h40v4h-40z" fill="#424a60"/><path d="m54 0h-3-1-40-1-3c-.552 0-1 .447-1 1s.448 1 1 1h3v4h42v-4h3c.552 0 1-.447 1-1s-.448-1-1-1zm-5 4h-38v-2h38z" fill="#556080"/><g fill="#7fabda"><path d="m24.999 24c-.19 0-.383-.055-.554-.168l-4.638-3.092c-1.131-.754-1.807-2.016-1.807-3.378v-2.222c0-.553.448-1 1-1s1 .447 1 1v2.222c0 .69.343 1.331.917 1.714l4.638 3.092c.459.307.583.927.277 1.387-.193.289-.51.445-.833.445z"/><path d="m41 46c-.552 0-1-.447-1-1v-2.222c0-.69-.343-1.331-.917-1.714l-4.638-3.092c-.459-.307-.583-.927-.277-1.387.307-.46.926-.584 1.387-.277l4.638 3.092c1.131.754 1.807 2.017 1.807 3.378v2.222c0 .553-.448 1-1 1z"/></g></svg>

<svg viewBox="0 0 60 60" xmlns="http://www.w3.org/2000/svg"><path d="M41.857 22.096A7.063 7.063 0 0 0 45 16.222V5H15v11.222c0 2.36 1.18 4.564 3.143 5.874L28 28.667v2.667l-9.857 6.571A7.06 7.06 0 0 0 15 43.778V55h30V43.778c0-2.36-1.18-4.564-3.143-5.874L32 31.333v-2.667z" fill="#7383bf"/><path d="M40.192 19.6A4.053 4.053 0 0 0 42 16.223a2.847 2.847 0 0 0-2.156-2.762L24.791 9.698C21.342 8.835 18 11.444 18 15v1.223c0 1.359.676 2.622 1.808 3.377L29 26.346v15.877c0 3.63-3.764 6.036-7.058 4.511-1.774-.821-3.922.394-3.941 2.349V55h24V43.777v-.041c-.019-1.931-1.889-3.322-3.791-2.991l-2.049.357A4.405 4.405 0 0 1 31 36.763V26.346z" fill="#424a60"/><path d="M10 55h40v4H10z" fill="#424a60"/><path d="M54 58h-3v-4H9v4H6a1 1 0 1 0 0 2h48a1 1 0 1 0 0-2zm-43-2h38v2H11z" fill="#556080"/><path d="M10 1h40v4H10z" fill="#424a60"/><path d="M54 0H6a1 1 0 1 0 0 2h3v4h42V2h3a1 1 0 1 0 0-2zm-5 4H11V2h38z" fill="#556080"/><g fill="#7fabda"><path d="M24.999 24c-.19 0-.383-.055-.554-.168l-4.638-3.092A4.05 4.05 0 0 1 18 17.362V15.14a1 1 0 1 1 2 0v2.222c0 .69.343 1.331.917 1.714l4.638 3.092A1.001 1.001 0 0 1 24.999 24zM41 46a1 1 0 0 1-1-1v-2.222c0-.69-.343-1.331-.917-1.714l-4.638-3.092a1.001 1.001 0 0 1 1.11-1.664l4.638 3.092A4.052 4.052 0 0 1 42 42.778V45a1 1 0 0 1-1 1z"/></g></svg>
